!!!COM: Palestrina, Giovanni Perluigi da
!!!OPR: Pater noster
!!!OTL: Kyrie
**kern	**kern	**kern	**kern
*Ibass	*Itenor	*Icalto	*Icant
!Bassus	!Tenor	!Altus	!Cantus
*clefF4	*clefGv2	*clefG2	*clefG2
*k[]	*k[]	*k[]	*k[]
*D:dor	*D:dor	*D:dor	*D:dor
*M4/2	*M4/2	*M4/2	*M4/2
=1	=1	=1	=1
2r	1c	0r	0r
1c	.	.	.
.	1d	.	.
2B	.	.	.
=2	=2	=2	=2
2A	1.e	0r	0r
4G	.	.	.
4F	.	.	.
2G	.	.	.
2A	2e	.	.
=3	=3	=3	=3
4D	1.f	0r	1r
4E	.	.	.
4F	.	.	.
4G	.	.	.
4A	.	.	1cc
4B	.	.	.
[2c	2e	.	.
=4	=4	=4	=4
2c]	1d	1r	1dd
2B	.	.	.
2.c	1c	2r	[1ee
.	.	[2cc	.
4B	.	.	.
=5	=5	=5	=5
2A	0r	2cc]	2ee]
2G	.	2b	2ee
1F	.	2a	[1ff
.	.	4g	.
.	.	4f	.
=6	=6	=6	=6
2.c	0r	2g	2ff]
.	.	2a	2ee
4A	.	.	.
1B-	.	4d	1dd
.	.	4e	.
.	.	4f	.
.	.	4g	.
=7	=7	=7	=7
1A	1r	4a	4cc
.	.	4b	4dd
.	.	1cc	4ee
.	.	.	4cc
1G	2r	.	[1dd
.	[2g	4b	.
.	.	4a	.
=8	=8	=8	=8
0r	2g]	2b	1dd]
.	2f	2a	.
.	2e	2g	2cc
.	4d	[2a	4b
.	4c	.	4a
=9	=9	=9	=9
1r	2d	2a]	1b
.	2e	2g#	.
1F	4A	1a	[1cc
.	4B	.	.
.	4c	.	.
.	4d	.	.
=10	=10	=10	=10
1G	4e	2.g	2cc]
.	4f	.	.
.	1g	.	2b
.	.	4f	.
[1A	.	2e	[1a
.	2f	[2d	.
=11	=11	=11	=11
2A]	2e	2d]	1a]
2A	2.f	2c	.
[1B-	.	1d	1r
.	4e	.	.
.	[2d	.	.
=12	=12	=12	=12
2B-]	2d]	1f	0r
2A	2c	.	.
1G	2d	1g	.
.	2e	.	.
=13	=13	=13	=13
2F	2.f	1.a	0r
4D	.	.	.
4E	4e	.	.
4F	2d	.	.
4G	.	.	.
2A	2c	2a	.
=14	=14	=14	=14
1G	1.d	1b-	2r
.	.	.	1gg
1D	.	[1a	.
.	2d	.	2ff
=15	=15	=15	=15
1A	2c	1a]	2ee
.	4B	.	4dd
.	4A	.	4cc
1r	2B	1g	2dd
.	2c	.	2ee
=16	=16	=16	=16
2r	2d	4f	4a
.	.	4g	4b
1A	2e	4a	4cc
.	.	4b	4dd
.	2A	2cc	4ee
.	.	.	4ff
2G	[2d	2b	2gg
=17	=17	=17	=17
1A	2d]	2r	2ff
.	2c	1a	2.ee
1B-	2.d	.	.
.	.	.	4dd
.	.	2g	[2dd
.	4e	.	.
=18	=18	=18	=18
1A	2f	1a	2dd]
.	2.e	.	2cc#
2G	.	2b-	1dd
.	4d	.	.
2F	[2d	2a	.
=19	=19	=19	=19
1E	2d]	1.g	1r
.	2c#	.	.
1D	1d	.	2r
.	.	2f	[2dd
=20	=20	=20	=20
2r	1A	1e	2dd]
2A	.	.	2cc#
2F	2r	1d	1dd
[2G	[2d	.	.
=21	=21	=21	=21
2G]	2d]	2r	1ee
2A	2c#	1a	.
1B-	1d	.	[1dd
.	.	2g	.
=22	=22	=22	=22
1A	1e	1a	2dd]
.	.	.	2cc#
1G	1g	1b	2dd
.	.	.	[2ee
=23	=23	=23	=23
0A	2.f	0a	2ee]
.	.	.	1dd
.	8e	.	.
.	8d	.	.
.	1e	.	.
.	.	.	2cc#
=24	=24	=24	=24
0D	0d	0a	0dd
=25	=25	=25	=25
0r	1r	1r	1dd
.	1d	1a	[1ff
=26	=26	=26	=26
0r	1.a	1.cc	2ff]
.	.	.	2ee
.	.	.	1ee
.	2g	2b	.
=27	=27	=27	=27
0r	2g	2b	0dd
.	2f	2a	.
.	2g	2b	.
.	2f	2a	.
=28	=28	=28	=28
0r	2e	2g	1ee
.	2c	1cc	.
.	1g	.	1dd
.	.	2b	.
=29	=29	=29	=29
1A	1r	4cc	1cc
.	.	4b	.
.	.	4a	.
.	.	4g	.
[1B-	1d	4f	1r
.	.	4e	.
.	.	2f	.
=30	=30	=30	=30
2B-]	1.f	2d	2r
2A	.	2.c	1a
1A	.	.	.
.	.	4d	.
.	2e	4e	[2cc
.	.	4f	.
=31	=31	=31	=31
0G	2e	1g	2cc]
.	2d	.	2b
.	2e	1r	2b
.	2d	.	2b
=32	=32	=32	=32
1A	2c	2r	1cc
.	1f	2a	.
1G	.	[1b-	1r
.	2e	.	.
=33	=33	=33	=33
2.F	0f	2b-]	1r
.	.	2a	.
4E	.	.	.
[1D	.	[1a	2r
.	.	.	2dd
=34	=34	=34	=34
2D]	2r	1a]	1.ff
2F	2A	.	.
1C	[1c	[1g	.
.	.	.	2ee
=35	=35	=35	=35
1G	2c]	0g]	2ee
.	2B	.	2dd
1r	2c	.	2ee
.	2B	.	2dd
=36	=36	=36	=36
2r	1A	1a	2cc
2A	.	.	1ff
2.c	1r	1g	.
.	.	.	2ee
4B	.	.	.
=37	=37	=37	=37
4A	1r	1f	0ff
4G	.	.	.
4F	.	.	.
4E	.	.	.
2D	2r	1a	.
2D	2d	.	.
=38	=38	=38	=38
1A	2c	1a	1ee
.	2A	.	.
1r	2c	1g	1ee
.	2c	.	.
=39	=39	=39	=39
0r	4G	1.b-	1dd
.	4A	.	.
.	4B-	.	.
.	4c	.	.
.	4d	.	[1ff
.	4e	.	.
.	2f	2a	.
=40	=40	=40	=40
0r	1c	2g	2ff]
.	.	2g	2ee
.	1d	2f	2dd
.	.	2d	2dd
=41	=41	=41	=41
1r	1r	2f	2cc
.	.	2f	2a
2r	1e	2c	4cc
.	.	.	4dd
2A	.	2cc	4ee
.	.	.	4ff
=42	=42	=42	=42
2G	1e	2b	0gg
2E	.	2g	.
2G	1d	2b	.
2G	.	2b	.
=43	=43	=43	=43
4D	1.f	1.a	2.ff
4E	.	.	.
4F	.	.	.
4G	.	.	8ee
.	.	.	8dd
4A	.	.	1cc
4B	.	.	.
[2c	2e	2g	.
=44	=44	=44	=44
2c]	2d	2a	1r
2B	2d	2b	.
[1A	2c	4cc	[1ee
.	.	4a	.
.	2A	[2cc	.
=45	=45	=45	=45
1A]	2c	4cc]	1ee]
.	.	4b	.
.	2c	1a	.
1r	1B-	.	1dd
.	.	2g	.
=46	=46	=46	=46
1D	1d	[0a	1.ff
2F	2c	.	.
2C	2c	.	2ee
=47	=47	=47	=47
0D	0f	1a_	0dd
.	.	1a_	.
=48	=48	=48	=48
0A	0e	0a]	0cc#
=49	=49	=49	=49
0r	1d	1a	1dd
.	2e	2g	2cc
.	2f	2a	2dd
=50	=50	=50	=50
0r	2g	2b	1ee
.	2a	2cc	.
.	2f	2a	[1dd
.	2g	2b-	.
=51	=51	=51	=51
1A	1e	1.a	2dd]
.	.	.	2cc
2B	1r	.	2dd
2c	.	2g	[2ee
=52	=52	=52	=52
2d	0r	2f	4ee]
.	.	.	4dd
2G	.	2g	1dd
1A	.	1e	.
.	.	.	2cc#
=53	=53	=53	=53
1D	2r	2d	1dd
.	2d	2A	.
2E	2c	2G	2r
2F	2d	2A	2a
=54	=54	=54	=54
1C	1e	1c	2g
.	.	.	2a
2r	[1d	1G	1b-
2G	.	.	.
=55	=55	=55	=55
2D	2d]	0r	1.a
1F	2c	.	.
.	2d	.	.
2E	[2e	.	2g
=56	=56	=56	=56
2F	4e]	2r	2a
.	4d	.	.
2G	1d	2g	2.b-
1A	.	2e	.
.	.	.	4a
.	2c	[2f	[2a
=57	=57	=57	=57
1B-	1d	2f]	2a]
.	.	4e	2g
.	.	4d	.
1A	1e	4c	[1a
.	.	4d	.
.	.	4e	.
.	.	4c	.
=58	=58	=58	=58
1D	2f	1d	1a]
.	2f	.	.
2r	2e	1A	1cc
2A	2f	.	.
=59	=59	=59	=59
2G	2g	2r	2b
2A	4f	1a	2cc
.	4e	.	.
1B-	1d	.	[1dd
.	.	2g	.
=60	=60	=60	=60
1A	1e	1a	2dd]
.	.	.	2cc
1G	2r	1b-	2.dd
.	[2d	.	.
.	.	.	4ee
=61	=61	=61	=61
1A	2d]	1a	2ff
.	2c	.	2.ee
1B-	1d	2f	.
.	.	.	4dd
.	.	2g	[2dd
=62	=62	=62	=62
1A	1e	2.a	2dd]
.	.	.	2cc#
.	.	4g	.
1D	[1d	4f	2.dd
.	.	4e	.
.	.	4d	.
.	.	4e	8cc
.	.	.	8b-
=63	=63	=63	=63
0r	2d]	4f	1a
.	.	4g	.
.	2c	1a	.
.	2d	.	1b-
.	2e	2g	.
=64	=64	=64	=64
1D	1f	1a	1a
2C	2e	1r	2r
2D	[2d	.	2a
=65	=65	=65	=65
1E	2d]	2r	2.g
.	2c#	1g	.
.	.	.	4a
[1D	2.d	.	2b-
.	.	2f	[2a
.	4e	.	.
=66	=66	=66	=66
2D]	2f	2d	4a]
.	.	.	4b
2C	2e	2e	2cc
1D	2.d	1f	2b
.	.	.	[2a
.	4c	.	.
=67	=67	=67	=67
1E	1B	1e	2a]
.	.	.	2g
4D	1d	[1a	4f
4E	.	.	4g
4F	.	.	4a
4G	.	.	4b
=68	=68	=68	=68
4A	2.c	2a]	4cc
4B	.	.	4dd
1c	.	2g	2.ee
.	4d	.	.
.	2e	2a	.
.	.	.	4ff
2G	[2d	[2b-	2gg
=69	=69	=69	=69
1A	2d]	4b-]	2ff
.	.	4a	.
.	2c#	1a	2.ee
1B-	1d	.	.
.	.	.	4dd
.	.	2g	[2dd
=70	=70	=70	=70
0A	0e	0a	2dd]
.	.	.	4cc#
.	.	.	4b
.	.	.	1cc#
=71	=71	=71	=71
0D	0d	0f#	0dd
==	==	==	==
*-	*-	*-	*-
!!!CDT: 1525/^1526/-1594/2/2
!!!OCY: Italia
!!!AGN: Mass (Paraphrase)
!!!AST: renaissance, vocal
!!!ASW: Prayer
!!!PWK: Masses, Book 10
!!!RNB: Cadence finals: A
!!!YOR: Le Opere Complete, v. 27, p. 199
!!!YOO: Rome, Italy: Fratelli Scalera
!!!END: 1992//
!!!EED: John Miller
!!!YEC: Copyright 2000, John Miller
!!!YEN: United States of America
!!!YEM: Rights to all derivative electronic formats reserved.
!!!YEM: Refer to licensing agreement for further details.
!!!YEM: This file must be accompanied by the licensing agreement.
!!!YEM: A copy of the licensing agreement may be found at http://www.music-cog.ohio-state.edu/HumdrumDatabases/Palestrina/license.txt
!!!EMD: converted to Humdrum by Bret Aarden
